fs/double_swipe_down_20_filled.svg

<svg viewBox="0 0 20 20" fill="none" xmlns="http://www.w3.org/2000/svg" height="1em" width="1em">
  <path d="M6.28033 17.7803C5.98744 18.0732 5.51256 18.0732 5.21967 17.7803L2.71967 15.2803C2.42678 14.9874 2.42678 14.5126 2.71967 14.2197C3.01256 13.9268 3.48744 13.9268 3.78033 14.2197L5 15.4394V5.75001C5 5.3358 5.33579 5.00001 5.75 5.00001C6.16421 5.00001 6.5 5.3358 6.5 5.75001V15.4394L7.71967 14.2197C8.01256 13.9268 8.48744 13.9268 8.78033 14.2197C9.07322 14.5126 9.07322 14.9874 8.78033 15.2803L6.28033 17.7803ZM2 5.75006C2 7.18908 2.81055 8.43879 4 9.06754V7.1644C3.6873 6.77796 3.5 6.28589 3.5 5.75006C3.5 4.50742 4.50736 3.50006 5.75 3.50006C6.99264 3.50006 8 4.50742 8 5.75006C8 6.28589 7.8127 6.77796 7.5 7.1644V9.06754C8.68945 8.43879 9.5 7.18908 9.5 5.75006C9.5 3.67899 7.82107 2.00006 5.75 2.00006C3.67893 2.00006 2 3.67899 2 5.75006ZM12.5 9.06754C11.3105 8.43879 10.5 7.18908 10.5 5.75006C10.5 3.67899 12.1789 2.00006 14.25 2.00006C16.3211 2.00006 18 3.67899 18 5.75006C18 7.18908 17.1895 8.43879 16 9.06754V7.1644C16.3127 6.77796 16.5 6.28589 16.5 5.75006C16.5 4.50742 15.4926 3.50006 14.25 3.50006C13.0074 3.50006 12 4.50742 12 5.75006C12 6.28589 12.1873 6.77796 12.5 7.1644V9.06754ZM14.7803 17.7803C14.4874 18.0732 14.0126 18.0732 13.7197 17.7803L11.2197 15.2803C10.9268 14.9874 10.9268 14.5126 11.2197 14.2197C11.5126 13.9268 11.9874 13.9268 12.2803 14.2197L13.5 15.4394V5.75001C13.5 5.3358 13.8358 5.00001 14.25 5.00001C14.6642 5.00001 15 5.3358 15 5.75001V15.4394L16.2197 14.2197C16.5126 13.9268 16.9874 13.9268 17.2803 14.2197C17.5732 14.5126 17.5732 14.9874 17.2803 15.2803L14.7803 17.7803Z" fill="#212121"/>
</svg>

<svg viewBox="0 0 20 20" fill="none" xmlns="http://www.w3.org/2000/svg" height="1em" width="1em">
  <path d="M6.28 17.78a.75.75 0 0 1-1.06 0l-2.5-2.5a.75.75 0 1 1 1.06-1.06L5 15.44V5.75a.75.75 0 0 1 1.5 0v9.69l1.22-1.22a.75.75 0 0 1 1.06 1.06l-2.5 2.5ZM2 5.75a3.75 3.75 0 0 0 2 3.318V7.164a2.25 2.25 0 1 1 3.5 0v1.904A3.75 3.75 0 0 0 5.75 2 3.75 3.75 0 0 0 2 5.75Zm10.5 3.318A3.75 3.75 0 0 1 14.25 2 3.75 3.75 0 0 1 16 9.068V7.164a2.25 2.25 0 1 0-3.5 0v1.904Zm2.28 8.712a.75.75 0 0 1-1.06 0l-2.5-2.5a.75.75 0 1 1 1.06-1.06l1.22 1.22V5.75a.75.75 0 0 1 1.5 0v9.69l1.22-1.22a.75.75 0 1 1 1.06 1.06l-2.5 2.5Z" fill="#212121"/>
</svg>
